X:1
T:12th of August, The
M:2/4
L:1/8
R:Country Dance
B:Thompson - Compleat Collection of 200 Favourite Country Dances, vol. 5 (London, 1788, No. 125, p. 63)
Z:AK/Fiddler's Companion
K:D
A|Affe|eddc|BBBd|A/^G/A/B/ AA|
Affe|eddc|Be {d}cB/A/|d2D:|
|:F/G/|AA AB/c/|dddA|BAGF|FE EF/G/|
AA AB/c/|dd de/f/|Be {d}cB/A/|d2 D:|]





